X: 11121
Q: "Slowish"
M: C
L: 1/16
K: Bb
.d2.B2 F2D2 G4 E3G | ~F3B A3c {Bc}d2B2B2 :|
de |\
f3dg3e Tf4 {=ef}d2g2 | fd3g3B A2c2-c2de |\
f3d g3e f3d b3d | (ed.c).B A2f2 (d2B2B2d)e |
f3dg3e Tf4 {=ef}d2g2 | fd3g3B A2c2-c2de |\
.f2.d2 .B2.F2 (G3A/B/) E3G | F3B A3c ({Bc}d2B2)B2 |]


